images/3234692.svg

<?xml version="1.0" encoding="UTF-8"?>
<svg xmlns="http://www.w3.org/2000/svg" xmlns:xlink="http://www.w3.org/1999/xlink" width="300pt" height="300pt" viewBox="0 0 300 300" version="1.1">
<defs>
<g>
<symbol overflow="visible" id="glyph0-0">
<path style="stroke:none;" d="M 0.453125 1.59375 L 0.453125 -6.34375 L 4.953125 -6.34375 L 4.953125 1.59375 Z M 0.953125 1.09375 L 4.453125 1.09375 L 4.453125 -5.84375 L 0.953125 -5.84375 Z M 0.953125 1.09375 "/>
</symbol>
<symbol overflow="visible" id="glyph0-1">
<path style="stroke:none;" d="M 0.890625 -6.5625 L 2.078125 -6.5625 L 4.984375 -1.078125 L 4.984375 -6.5625 L 5.84375 -6.5625 L 5.84375 0 L 4.65625 0 L 1.75 -5.484375 L 1.75 0 L 0.890625 0 Z M 0.890625 -6.5625 "/>
</symbol>
<symbol overflow="visible" id="glyph0-2">
<path style="stroke:none;" d="M 3.546875 -5.953125 C 2.898438 -5.953125 2.382812 -5.710938 2 -5.234375 C 1.625 -4.753906 1.4375 -4.101562 1.4375 -3.28125 C 1.4375 -2.445312 1.625 -1.789062 2 -1.3125 C 2.382812 -0.832031 2.898438 -0.59375 3.546875 -0.59375 C 4.191406 -0.59375 4.703125 -0.832031 5.078125 -1.3125 C 5.453125 -1.789062 5.640625 -2.445312 5.640625 -3.28125 C 5.640625 -4.101562 5.453125 -4.753906 5.078125 -5.234375 C 4.703125 -5.710938 4.191406 -5.953125 3.546875 -5.953125 Z M 3.546875 -6.6875 C 4.460938 -6.6875 5.195312 -6.375 5.75 -5.75 C 6.300781 -5.132812 6.578125 -4.3125 6.578125 -3.28125 C 6.578125 -2.238281 6.300781 -1.410156 5.75 -0.796875 C 5.195312 -0.179688 4.460938 0.125 3.546875 0.125 C 2.617188 0.125 1.878906 -0.179688 1.328125 -0.796875 C 0.773438 -1.410156 0.5 -2.238281 0.5 -3.28125 C 0.5 -4.3125 0.773438 -5.132812 1.328125 -5.75 C 1.878906 -6.375 2.617188 -6.6875 3.546875 -6.6875 Z M 3.546875 -6.6875 "/>
</symbol>
<symbol overflow="visible" id="glyph0-3">
<path style="stroke:none;" d="M 0.890625 -6.5625 L 1.765625 -6.5625 L 1.765625 -3.875 L 5 -3.875 L 5 -6.5625 L 5.890625 -6.5625 L 5.890625 0 L 5 0 L 5 -3.125 L 1.765625 -3.125 L 1.765625 0 L 0.890625 0 Z M 0.890625 -6.5625 "/>
</symbol>
</g>
</defs>
<g id="surface30121">
<rect x="0" y="0" width="300" height="300" style="fill:rgb(100%,100%,100%);fill-opacity:1;stroke:none;"/>
<path style="fill:none;stroke-width:1.2;stroke-linecap:butt;stroke-linejoin:miter;stroke:rgb(0%,0%,0%);stroke-opacity:1;stroke-miterlimit:10;" d="M 204.425781 188.800781 L 184.730469 192.113281 "/>
<path style="fill:none;stroke-width:1.2;stroke-linecap:butt;stroke-linejoin:miter;stroke:rgb(0%,0%,0%);stroke-opacity:1;stroke-miterlimit:10;" d="M 211.40625 170.089844 L 204.425781 188.800781 "/>
<path style="fill:none;stroke-width:1;stroke-linecap:butt;stroke-linejoin:miter;stroke:rgb(0%,0%,0%);stroke-opacity:1;stroke-miterlimit:10;" d="M 172.015625 176.710938 L 172.015625 176.710938 M 173.496094 179.324219 L 174.300781 178.660156 M 174.976562 181.933594 L 176.582031 180.605469 M 176.453125 184.542969 L 178.867188 182.550781 M 177.933594 187.152344 L 181.148438 184.496094 M 179.414062 189.761719 L 183.433594 186.441406 M 180.890625 192.371094 L 185.714844 188.390625 M 182.015625 194.355469 L 187.449219 189.867188 "/>
<path style="fill:none;stroke-width:1.2;stroke-linecap:butt;stroke-linejoin:miter;stroke:rgb(0%,0%,0%);stroke-opacity:1;stroke-miterlimit:10;" d="M 172.015625 176.710938 L 163.121094 194.589844 "/>
<path style="fill:none;stroke-width:1.2;stroke-linecap:butt;stroke-linejoin:miter;stroke:rgb(0%,0%,0%);stroke-opacity:1;stroke-miterlimit:10;" d="M 172.015625 176.710938 L 178.996094 158 "/>
<path style="fill:none;stroke-width:1.2;stroke-linecap:butt;stroke-linejoin:miter;stroke:rgb(0%,0%,0%);stroke-opacity:1;stroke-miterlimit:10;" d="M 157.761719 162.726562 L 172.015625 176.710938 "/>
<path style="fill:none;stroke-width:1.2;stroke-linecap:butt;stroke-linejoin:miter;stroke:rgb(0%,0%,0%);stroke-opacity:1;stroke-miterlimit:10;" d="M 163.121094 194.589844 L 143.367188 191.65625 "/>
<path style="fill:none;stroke-width:1.2;stroke-linecap:butt;stroke-linejoin:miter;stroke:rgb(0%,0%,0%);stroke-opacity:1;stroke-miterlimit:10;" d="M 143.367188 191.65625 L 141.710938 181.808594 "/>
<path style="fill:none;stroke-width:1.2;stroke-linecap:butt;stroke-linejoin:miter;stroke:rgb(0%,0%,100%);stroke-opacity:1;stroke-miterlimit:10;" d="M 141.710938 181.808594 L 140.054688 171.960938 "/>
<path style="fill:none;stroke-width:1.2;stroke-linecap:butt;stroke-linejoin:miter;stroke:rgb(0%,0%,100%);stroke-opacity:1;stroke-miterlimit:10;" d="M 140.054688 171.960938 L 148.910156 167.34375 "/>
<path style="fill:none;stroke-width:1.2;stroke-linecap:butt;stroke-linejoin:miter;stroke:rgb(0%,0%,0%);stroke-opacity:1;stroke-miterlimit:10;" d="M 148.910156 167.34375 L 157.761719 162.726562 "/>
<path style="fill:none;stroke-width:1.2;stroke-linecap:butt;stroke-linejoin:miter;stroke:rgb(0%,0%,100%);stroke-opacity:1;stroke-miterlimit:10;" d="M 140.054688 171.960938 L 131.117188 167.511719 "/>
<path style="fill:none;stroke-width:1.2;stroke-linecap:butt;stroke-linejoin:miter;stroke:rgb(0%,0%,0%);stroke-opacity:1;stroke-miterlimit:10;" d="M 131.117188 167.511719 L 122.175781 163.066406 "/>
<path style=" stroke:none;fill-rule:nonzero;fill:rgb(100%,100%,100%);fill-opacity:1;" d="M 137.054688 166.460938 L 144.054688 166.460938 L 144.054688 177.460938 L 137.054688 177.460938 Z M 137.054688 166.460938 "/>
<g style="fill:rgb(0%,0%,100%);fill-opacity:1;">
  <use xlink:href="#glyph0-1" x="137.054688" y="175.124023"/>
</g>
<path style="fill:none;stroke-width:1.2;stroke-linecap:butt;stroke-linejoin:miter;stroke:rgb(0%,0%,0%);stroke-opacity:1;stroke-miterlimit:10;" d="M 120.878906 161.105469 L 112.554688 166.625 "/>
<path style="fill:none;stroke-width:1.2;stroke-linecap:butt;stroke-linejoin:miter;stroke:rgb(100%,0%,0%);stroke-opacity:1;stroke-miterlimit:10;" d="M 112.554688 166.625 L 104.234375 172.144531 "/>
<path style="fill:none;stroke-width:1.2;stroke-linecap:butt;stroke-linejoin:miter;stroke:rgb(0%,0%,0%);stroke-opacity:1;stroke-miterlimit:10;" d="M 123.472656 165.023438 L 115.152344 170.542969 "/>
<path style="fill:none;stroke-width:1.2;stroke-linecap:butt;stroke-linejoin:miter;stroke:rgb(100%,0%,0%);stroke-opacity:1;stroke-miterlimit:10;" d="M 115.152344 170.542969 L 106.832031 176.058594 "/>
<path style="fill:none;stroke-width:1.2;stroke-linecap:butt;stroke-linejoin:miter;stroke:rgb(0%,0%,0%);stroke-opacity:1;stroke-miterlimit:10;" d="M 122.175781 163.066406 L 121.558594 153.097656 "/>
<path style="fill:none;stroke-width:1.2;stroke-linecap:butt;stroke-linejoin:miter;stroke:rgb(0%,0%,100%);stroke-opacity:1;stroke-miterlimit:10;" d="M 121.558594 153.097656 L 120.941406 143.132812 "/>
<path style=" stroke:none;fill-rule:nonzero;fill:rgb(100%,100%,100%);fill-opacity:1;" d="M 97.53125 168.601562 L 105.53125 168.601562 L 105.53125 179.601562 L 97.53125 179.601562 Z M 97.53125 168.601562 "/>
<g style="fill:rgb(100%,0%,0%);fill-opacity:1;">
  <use xlink:href="#glyph0-2" x="97.53125" y="177.264648"/>
</g>
<path style="fill:none;stroke-width:1.2;stroke-linecap:butt;stroke-linejoin:miter;stroke:rgb(0%,0%,100%);stroke-opacity:1;stroke-miterlimit:10;" d="M 120.941406 143.132812 L 112 138.683594 "/>
<path style="fill:none;stroke-width:1.2;stroke-linecap:butt;stroke-linejoin:miter;stroke:rgb(0%,0%,0%);stroke-opacity:1;stroke-miterlimit:10;" d="M 112 138.683594 L 103.0625 134.238281 "/>
<path style=" stroke:none;fill-rule:nonzero;fill:rgb(100%,100%,100%);fill-opacity:1;" d="M 113.941406 137.632812 L 127.941406 137.632812 L 127.941406 148.632812 L 113.941406 148.632812 Z M 113.941406 137.632812 "/>
<g style="fill:rgb(0%,0%,100%);fill-opacity:1;">
  <use xlink:href="#glyph0-1" x="113.941406" y="146.295898"/>
  <use xlink:href="#glyph0-3" x="120.918945" y="146.295898"/>
</g>
<path style="fill:none;stroke-width:1.2;stroke-linecap:butt;stroke-linejoin:miter;stroke:rgb(0%,0%,0%);stroke-opacity:1;stroke-miterlimit:10;" d="M 103.0625 134.238281 L 101.828125 114.304688 "/>
<path style="fill:none;stroke-width:1.2;stroke-linecap:butt;stroke-linejoin:miter;stroke:rgb(0%,0%,0%);stroke-opacity:1;stroke-miterlimit:10;" d="M 98.25 132.535156 L 97.261719 116.589844 "/>
<path style="fill:none;stroke-width:1.2;stroke-linecap:butt;stroke-linejoin:miter;stroke:rgb(0%,0%,0%);stroke-opacity:1;stroke-miterlimit:10;" d="M 86.417969 145.273438 L 103.0625 134.238281 "/>
<path style="fill:none;stroke-width:1.2;stroke-linecap:butt;stroke-linejoin:miter;stroke:rgb(0%,0%,0%);stroke-opacity:1;stroke-miterlimit:10;" d="M 101.828125 114.304688 L 83.945312 105.410156 "/>
<path style="fill:none;stroke-width:1.2;stroke-linecap:butt;stroke-linejoin:miter;stroke:rgb(0%,0%,0%);stroke-opacity:1;stroke-miterlimit:10;" d="M 83.945312 105.410156 L 67.304688 116.445312 "/>
<path style="fill:none;stroke-width:1.2;stroke-linecap:butt;stroke-linejoin:miter;stroke:rgb(0%,0%,0%);stroke-opacity:1;stroke-miterlimit:10;" d="M 84.878906 110.429688 L 71.5625 119.257812 "/>
<path style="fill:none;stroke-width:1.2;stroke-linecap:butt;stroke-linejoin:miter;stroke:rgb(0%,0%,0%);stroke-opacity:1;stroke-miterlimit:10;" d="M 67.304688 116.445312 L 68.539062 136.375 "/>
<path style="fill:none;stroke-width:1.2;stroke-linecap:butt;stroke-linejoin:miter;stroke:rgb(0%,0%,0%);stroke-opacity:1;stroke-miterlimit:10;" d="M 68.539062 136.375 L 86.417969 145.273438 "/>
<path style="fill:none;stroke-width:1.2;stroke-linecap:butt;stroke-linejoin:miter;stroke:rgb(0%,0%,0%);stroke-opacity:1;stroke-miterlimit:10;" d="M 72.417969 133.058594 L 86.722656 140.175781 "/>
<path style="fill:none;stroke-width:1.2;stroke-linecap:butt;stroke-linejoin:miter;stroke:rgb(0%,0%,0%);stroke-opacity:1;stroke-miterlimit:10;" d="M 68.539062 136.375 L 51.894531 147.414062 "/>
<path style="fill:none;stroke-width:1.2;stroke-linecap:butt;stroke-linejoin:miter;stroke:rgb(0%,0%,0%);stroke-opacity:1;stroke-miterlimit:10;" d="M 51.894531 147.414062 L 43.570312 152.929688 "/>
<path style="fill:none;stroke-width:1.2;stroke-linecap:butt;stroke-linejoin:miter;stroke:rgb(0%,0%,100%);stroke-opacity:1;stroke-miterlimit:10;" d="M 43.570312 152.929688 L 35.25 158.449219 "/>
<path style="fill:none;stroke-width:1.2;stroke-linecap:butt;stroke-linejoin:miter;stroke:rgb(0%,0%,0%);stroke-opacity:1;stroke-miterlimit:10;" d="M 47.632812 144.597656 L 40.976562 149.015625 "/>
<path style="fill:none;stroke-width:1.2;stroke-linecap:butt;stroke-linejoin:miter;stroke:rgb(0%,0%,100%);stroke-opacity:1;stroke-miterlimit:10;" d="M 40.976562 149.015625 L 34.316406 153.429688 "/>
<path style="fill:none;stroke-width:1.2;stroke-linecap:butt;stroke-linejoin:miter;stroke:rgb(0%,0%,0%);stroke-opacity:1;stroke-miterlimit:10;" d="M 52.828125 152.433594 L 46.167969 156.847656 "/>
<path style="fill:none;stroke-width:1.2;stroke-linecap:butt;stroke-linejoin:miter;stroke:rgb(0%,0%,100%);stroke-opacity:1;stroke-miterlimit:10;" d="M 46.167969 156.847656 L 39.511719 161.261719 "/>
<path style=" stroke:none;fill-rule:nonzero;fill:rgb(100%,100%,100%);fill-opacity:1;" d="M 28.25 152.949219 L 35.25 152.949219 L 35.25 163.949219 L 28.25 163.949219 Z M 28.25 152.949219 "/>
<g style="fill:rgb(0%,0%,100%);fill-opacity:1;">
  <use xlink:href="#glyph0-1" x="28.25" y="161.612305"/>
</g>
<path style="fill:none;stroke-width:1.2;stroke-linecap:butt;stroke-linejoin:miter;stroke:rgb(0%,0%,0%);stroke-opacity:1;stroke-miterlimit:10;" d="M 178.996094 158 L 188.84375 156.34375 "/>
<path style="fill:none;stroke-width:1.2;stroke-linecap:butt;stroke-linejoin:miter;stroke:rgb(0%,0%,100%);stroke-opacity:1;stroke-miterlimit:10;" d="M 188.84375 156.34375 L 198.691406 154.6875 "/>
<path style="fill:none;stroke-width:1.2;stroke-linecap:butt;stroke-linejoin:miter;stroke:rgb(0%,0%,100%);stroke-opacity:1;stroke-miterlimit:10;" d="M 198.691406 154.6875 L 205.046875 162.390625 "/>
<path style="fill:none;stroke-width:1.2;stroke-linecap:butt;stroke-linejoin:miter;stroke:rgb(0%,0%,0%);stroke-opacity:1;stroke-miterlimit:10;" d="M 205.046875 162.390625 L 211.40625 170.089844 "/>
<path style="fill:none;stroke-width:1.2;stroke-linecap:butt;stroke-linejoin:miter;stroke:rgb(0%,0%,100%);stroke-opacity:1;stroke-miterlimit:10;" d="M 198.691406 154.6875 L 202.179688 145.332031 "/>
<path style="fill:none;stroke-width:1.2;stroke-linecap:butt;stroke-linejoin:miter;stroke:rgb(0%,0%,0%);stroke-opacity:1;stroke-miterlimit:10;" d="M 202.179688 145.332031 L 205.667969 135.976562 "/>
<path style=" stroke:none;fill-rule:nonzero;fill:rgb(100%,100%,100%);fill-opacity:1;" d="M 195.691406 149.1875 L 202.691406 149.1875 L 202.691406 160.1875 L 195.691406 160.1875 Z M 195.691406 149.1875 "/>
<g style="fill:rgb(0%,0%,100%);fill-opacity:1;">
  <use xlink:href="#glyph0-1" x="195.691406" y="157.850586"/>
</g>
<path style="fill:none;stroke-width:1.2;stroke-linecap:butt;stroke-linejoin:miter;stroke:rgb(0%,0%,0%);stroke-opacity:1;stroke-miterlimit:10;" d="M 207.480469 134.480469 L 201.121094 126.78125 "/>
<path style="fill:none;stroke-width:1.2;stroke-linecap:butt;stroke-linejoin:miter;stroke:rgb(100%,0%,0%);stroke-opacity:1;stroke-miterlimit:10;" d="M 201.121094 126.78125 L 194.765625 119.082031 "/>
<path style="fill:none;stroke-width:1.2;stroke-linecap:butt;stroke-linejoin:miter;stroke:rgb(0%,0%,0%);stroke-opacity:1;stroke-miterlimit:10;" d="M 203.855469 137.472656 L 197.5 129.773438 "/>
<path style="fill:none;stroke-width:1.2;stroke-linecap:butt;stroke-linejoin:miter;stroke:rgb(100%,0%,0%);stroke-opacity:1;stroke-miterlimit:10;" d="M 197.5 129.773438 L 191.140625 122.074219 "/>
<path style="fill:none;stroke-width:1.2;stroke-linecap:butt;stroke-linejoin:miter;stroke:rgb(0%,0%,0%);stroke-opacity:1;stroke-miterlimit:10;" d="M 205.667969 135.976562 L 225.363281 132.664062 "/>
<path style=" stroke:none;fill-rule:nonzero;fill:rgb(100%,100%,100%);fill-opacity:1;" d="M 184.953125 115.078125 L 192.953125 115.078125 L 192.953125 126.078125 L 184.953125 126.078125 Z M 184.953125 115.078125 "/>
<g style="fill:rgb(100%,0%,0%);fill-opacity:1;">
  <use xlink:href="#glyph0-2" x="184.953125" y="123.741211"/>
</g>
<path style="fill:none;stroke-width:1.2;stroke-linecap:butt;stroke-linejoin:miter;stroke:rgb(0%,0%,0%);stroke-opacity:1;stroke-miterlimit:10;" d="M 225.363281 132.664062 L 231.71875 140.367188 "/>
<path style="fill:none;stroke-width:1.2;stroke-linecap:butt;stroke-linejoin:miter;stroke:rgb(0%,0%,100%);stroke-opacity:1;stroke-miterlimit:10;" d="M 231.71875 140.367188 L 238.078125 148.066406 "/>
<path style="fill:none;stroke-width:1.2;stroke-linecap:butt;stroke-linejoin:miter;stroke:rgb(0%,0%,0%);stroke-opacity:1;stroke-miterlimit:10;" d="M 230.257812 131.214844 L 235.34375 137.375 "/>
<path style="fill:none;stroke-width:1.2;stroke-linecap:butt;stroke-linejoin:miter;stroke:rgb(0%,0%,100%);stroke-opacity:1;stroke-miterlimit:10;" d="M 235.34375 137.375 L 240.429688 143.535156 "/>
<path style="fill:none;stroke-width:1.2;stroke-linecap:butt;stroke-linejoin:miter;stroke:rgb(0%,0%,0%);stroke-opacity:1;stroke-miterlimit:10;" d="M 232.339844 113.953125 L 225.363281 132.664062 "/>
<path style="fill:none;stroke-width:1.2;stroke-linecap:butt;stroke-linejoin:miter;stroke:rgb(0%,0%,100%);stroke-opacity:1;stroke-miterlimit:10;" d="M 238.078125 148.066406 L 247.925781 146.410156 "/>
<path style="fill:none;stroke-width:1.2;stroke-linecap:butt;stroke-linejoin:miter;stroke:rgb(0%,0%,0%);stroke-opacity:1;stroke-miterlimit:10;" d="M 247.925781 146.410156 L 257.769531 144.753906 "/>
<path style=" stroke:none;fill-rule:nonzero;fill:rgb(100%,100%,100%);fill-opacity:1;" d="M 235.078125 142.566406 L 242.078125 142.566406 L 242.078125 153.566406 L 235.078125 153.566406 Z M 235.078125 142.566406 "/>
<g style="fill:rgb(0%,0%,100%);fill-opacity:1;">
  <use xlink:href="#glyph0-1" x="235.078125" y="151.229492"/>
</g>
<path style="fill:none;stroke-width:1.2;stroke-linecap:butt;stroke-linejoin:miter;stroke:rgb(0%,0%,0%);stroke-opacity:1;stroke-miterlimit:10;" d="M 257.769531 144.753906 L 264.75 126.042969 "/>
<path style="fill:none;stroke-width:1.2;stroke-linecap:butt;stroke-linejoin:miter;stroke:rgb(0%,0%,0%);stroke-opacity:1;stroke-miterlimit:10;" d="M 254.066406 141.238281 L 259.648438 126.269531 "/>
<path style="fill:none;stroke-width:1.2;stroke-linecap:butt;stroke-linejoin:miter;stroke:rgb(0%,0%,0%);stroke-opacity:1;stroke-miterlimit:10;" d="M 264.75 126.042969 L 258.390625 118.34375 "/>
<path style="fill:none;stroke-width:1.2;stroke-linecap:butt;stroke-linejoin:miter;stroke:rgb(0%,0%,100%);stroke-opacity:1;stroke-miterlimit:10;" d="M 258.390625 118.34375 L 252.035156 110.644531 "/>
<path style="fill:none;stroke-width:1.2;stroke-linecap:butt;stroke-linejoin:miter;stroke:rgb(0%,0%,100%);stroke-opacity:1;stroke-miterlimit:10;" d="M 252.035156 110.644531 L 242.1875 112.296875 "/>
<path style="fill:none;stroke-width:1.2;stroke-linecap:butt;stroke-linejoin:miter;stroke:rgb(0%,0%,0%);stroke-opacity:1;stroke-miterlimit:10;" d="M 242.1875 112.296875 L 232.339844 113.953125 "/>
<path style="fill:none;stroke-width:1.2;stroke-linecap:butt;stroke-linejoin:miter;stroke:rgb(0%,0%,100%);stroke-opacity:1;stroke-miterlimit:10;" d="M 250.84375 115.609375 L 242.96875 116.933594 "/>
<path style="fill:none;stroke-width:1.2;stroke-linecap:butt;stroke-linejoin:miter;stroke:rgb(0%,0%,0%);stroke-opacity:1;stroke-miterlimit:10;" d="M 242.96875 116.933594 L 235.089844 118.257812 "/>
<path style=" stroke:none;fill-rule:nonzero;fill:rgb(100%,100%,100%);fill-opacity:1;" d="M 249.035156 105.144531 L 256.035156 105.144531 L 256.035156 116.144531 L 249.035156 116.144531 Z M 249.035156 105.144531 "/>
<g style="fill:rgb(0%,0%,100%);fill-opacity:1;">
  <use xlink:href="#glyph0-1" x="249.035156" y="113.807617"/>
</g>
</g>
</svg>

<svg xmlns="http://www.w3.org/2000/svg" xmlns:xlink="http://www.w3.org/1999/xlink" width="300pt" height="300pt" viewBox="0 0 300 300"><defs><symbol overflow="visible"><path d="M.453 1.594v-7.938h4.5v7.938zm.5-.5h3.5v-6.938h-3.5zm0 0"/></symbol><symbol overflow="visible" id="a"><path d="M.89-6.563H2.08l2.906 5.485v-5.484h.86V0H4.656L1.75-5.484V0H.89zm0 0"/></symbol><symbol overflow="visible" id="b"><path d="M3.547-5.953c-.65 0-1.164.242-1.547.72-.375.48-.563 1.13-.563 1.952 0 .835.188 1.49.563 1.967.383.48.898.72 1.547.72.644 0 1.156-.24 1.53-.72.376-.476.564-1.132.564-1.968 0-.822-.187-1.474-.562-1.954-.375-.477-.887-.72-1.53-.72zm0-.734c.914 0 1.648.312 2.203.937.55.617.828 1.438.828 2.47 0 1.042-.277 1.87-.828 2.483-.555.617-1.29.922-2.203.922-.93 0-1.668-.305-2.22-.922C.774-1.41.5-2.237.5-3.28c0-1.033.273-1.853.828-2.47.55-.625 1.29-.938 2.22-.938zm0 0"/></symbol><symbol overflow="visible" id="c"><path d="M.89-6.563h.876v2.688H5v-2.688h.89V0H5v-3.125H1.766V0H.89zm0 0"/></symbol></defs><g><path fill="#fff" d="M0 0h300v300H0z"/><path d="M204.426 188.8l-19.696 3.313M211.406 170.09l-6.98 18.71" stroke-width="1.2" stroke="#000" stroke-miterlimit="10" fill="none"/><path d="M172.016 176.71m1.48 2.614l.805-.664m.677 3.274l1.605-1.33m-.13 3.94l2.415-1.993m-.933 4.602l3.214-2.656m-1.734 5.266l4.02-3.32m-2.543 5.93l4.825-3.98m-3.7 5.963l5.434-4.488" stroke="#000" stroke-miterlimit="10" fill="none"/><path d="M172.016 176.71l-8.895 17.88M172.016 176.71l6.98-18.71M157.762 162.727l14.254 13.984M163.12 194.59l-19.753-2.934M143.367 191.656l-1.656-9.847" stroke-width="1.2" stroke="#000" stroke-miterlimit="10" fill="none"/><path d="M141.71 181.81l-1.655-9.85M140.055 171.96l8.855-4.616" stroke-width="1.2" stroke="#00f" stroke-miterlimit="10" fill="none"/><path d="M148.91 167.344l8.852-4.617" stroke-width="1.2" stroke="#000" stroke-miterlimit="10" fill="none"/><path d="M140.055 171.96l-8.938-4.448" stroke-width="1.2" stroke="#00f" stroke-miterlimit="10" fill="none"/><path d="M131.117 167.512l-8.94-4.446" stroke-width="1.2" stroke="#000" stroke-miterlimit="10" fill="none"/><path d="M137.055 166.46h7v11h-7zm0 0" fill="#fff"/><use xlink:href="#a" x="137.055" y="175.124" fill="#00f"/><path d="M120.88 161.105l-8.325 5.52" stroke-width="1.2" stroke="#000" stroke-miterlimit="10" fill="none"/><path d="M112.555 166.625l-8.32 5.52" stroke-width="1.2" stroke="#f00" stroke-miterlimit="10" fill="none"/><path d="M123.473 165.023l-8.32 5.52" stroke-width="1.2" stroke="#000" stroke-miterlimit="10" fill="none"/><path d="M115.152 170.543l-8.32 5.516" stroke-width="1.2" stroke="#f00" stroke-miterlimit="10" fill="none"/><path d="M122.176 163.066l-.617-9.968" stroke-width="1.2" stroke="#000" stroke-miterlimit="10" fill="none"/><path d="M121.56 153.098l-.62-9.965" stroke-width="1.2" stroke="#00f" stroke-miterlimit="10" fill="none"/><path d="M97.53 168.602h8v11h-8zm0 0" fill="#fff"/><use xlink:href="#b" x="97.531" y="177.265" fill="#f00"/><path d="M120.94 143.133l-8.94-4.45" stroke-width="1.2" stroke="#00f" stroke-miterlimit="10" fill="none"/><path d="M112 138.684l-8.938-4.446" stroke-width="1.2" stroke="#000" stroke-miterlimit="10" fill="none"/><path d="M113.94 137.633h14v11h-14zm0 0" fill="#fff"/><g fill="#00f"><use xlink:href="#a" x="113.941" y="146.296"/><use xlink:href="#c" x="120.919" y="146.296"/></g><path d="M103.063 134.238l-1.235-19.933M98.25 132.535l-.988-15.945M86.418 145.273l16.644-11.035M101.828 114.305l-17.883-8.895M83.945 105.41l-16.64 11.035M84.88 110.43l-13.317 8.828M67.305 116.445l1.234 19.93M68.54 136.375l17.878 8.898M72.418 133.06l14.305 7.116M68.54 136.375l-16.645 11.04M51.895 147.414l-8.325 5.516" stroke-width="1.2" stroke="#000" stroke-miterlimit="10" fill="none"/><path d="M43.57 152.93l-8.32 5.52" stroke-width="1.2" stroke="#00f" stroke-miterlimit="10" fill="none"/><path d="M47.633 144.598l-6.656 4.418" stroke-width="1.2" stroke="#000" stroke-miterlimit="10" fill="none"/><path d="M40.977 149.016l-6.66 4.414" stroke-width="1.2" stroke="#00f" stroke-miterlimit="10" fill="none"/><path d="M52.828 152.434l-6.66 4.414" stroke-width="1.2" stroke="#000" stroke-miterlimit="10" fill="none"/><path d="M46.168 156.848l-6.656 4.414" stroke-width="1.2" stroke="#00f" stroke-miterlimit="10" fill="none"/><path d="M28.25 152.95h7v11h-7zm0 0" fill="#fff"/><use xlink:href="#a" x="28.25" y="161.612" fill="#00f"/><path d="M178.996 158l9.848-1.656" stroke-width="1.2" stroke="#000" stroke-miterlimit="10" fill="none"/><path d="M188.844 156.344l9.847-1.656M198.69 154.688l6.357 7.703" stroke-width="1.2" stroke="#00f" stroke-miterlimit="10" fill="none"/><path d="M205.047 162.39l6.36 7.7" stroke-width="1.2" stroke="#000" stroke-miterlimit="10" fill="none"/><path d="M198.69 154.688l3.49-9.356" stroke-width="1.2" stroke="#00f" stroke-miterlimit="10" fill="none"/><path d="M202.18 145.332l3.488-9.355" stroke-width="1.2" stroke="#000" stroke-miterlimit="10" fill="none"/><path d="M195.69 149.188h7v11h-7zm0 0" fill="#fff"/><use xlink:href="#a" x="195.691" y="157.851" fill="#00f"/><path d="M207.48 134.48l-6.36-7.7" stroke-width="1.2" stroke="#000" stroke-miterlimit="10" fill="none"/><path d="M201.12 126.78l-6.354-7.698" stroke-width="1.2" stroke="#f00" stroke-miterlimit="10" fill="none"/><path d="M203.855 137.473l-6.355-7.7" stroke-width="1.2" stroke="#000" stroke-miterlimit="10" fill="none"/><path d="M197.5 129.773l-6.36-7.7" stroke-width="1.2" stroke="#f00" stroke-miterlimit="10" fill="none"/><path d="M205.668 135.977l19.695-3.313" stroke-width="1.2" stroke="#000" stroke-miterlimit="10" fill="none"/><path d="M184.953 115.078h8v11h-8zm0 0" fill="#fff"/><use xlink:href="#b" x="184.953" y="123.741" fill="#f00"/><path d="M225.363 132.664l6.356 7.703" stroke-width="1.2" stroke="#000" stroke-miterlimit="10" fill="none"/><path d="M231.72 140.367l6.358 7.7" stroke-width="1.2" stroke="#00f" stroke-miterlimit="10" fill="none"/><path d="M230.258 131.215l5.086 6.16" stroke-width="1.2" stroke="#000" stroke-miterlimit="10" fill="none"/><path d="M235.344 137.375l5.086 6.16" stroke-width="1.2" stroke="#00f" stroke-miterlimit="10" fill="none"/><path d="M232.34 113.953l-6.977 18.71" stroke-width="1.2" stroke="#000" stroke-miterlimit="10" fill="none"/><path d="M238.078 148.066l9.848-1.656" stroke-width="1.2" stroke="#00f" stroke-miterlimit="10" fill="none"/><path d="M247.926 146.41l9.844-1.656" stroke-width="1.2" stroke="#000" stroke-miterlimit="10" fill="none"/><path d="M235.078 142.566h7v11h-7zm0 0" fill="#fff"/><use xlink:href="#a" x="235.078" y="151.229" fill="#00f"/><path d="M257.77 144.754l6.98-18.71M254.066 141.238l5.582-14.968M264.75 126.043l-6.36-7.7" stroke-width="1.2" stroke="#000" stroke-miterlimit="10" fill="none"/><path d="M258.39 118.344l-6.355-7.7M252.035 110.645l-9.847 1.652" stroke-width="1.2" stroke="#00f" stroke-miterlimit="10" fill="none"/><path d="M242.188 112.297l-9.848 1.656" stroke-width="1.2" stroke="#000" stroke-miterlimit="10" fill="none"/><path d="M250.844 115.61l-7.875 1.324" stroke-width="1.2" stroke="#00f" stroke-miterlimit="10" fill="none"/><path d="M242.97 116.934l-7.88 1.324" stroke-width="1.2" stroke="#000" stroke-miterlimit="10" fill="none"/><path d="M249.035 105.145h7v11h-7zm0 0" fill="#fff"/><use xlink:href="#a" x="249.035" y="113.808" fill="#00f"/></g></svg>
